public/img/icons/rfid-icon.svg

<svg fill="none" height="64" viewBox="0 0 64 64" width="64" xmlns="http://www.w3.org/2000/svg"><path d="m18 55.0914c4.0822 2.4803 8.8743 3.9086 14 3.9086 14.9117 0 27-12.0883 27-27s-12.0883-27-27-27-27 12.0883-27 27c0 8.3452 3.78608 15.8062 9.7343 20.7589" stroke="#000" stroke-linecap="round" stroke-width="2"/><g fill="#000"><circle cx="32" cy="32" r="3" transform="matrix(0 1 -1 0 64 0)"/><path clip-rule="evenodd" d="m43.978 42.068c.3942.2792.9352.2345 1.2554-.1271 2.3437-2.6466 3.7666-6.1274 3.7666-9.9406s-1.4229-7.2941-3.7666-9.9407c-.3202-.3615-.8612-.4063-1.2554-.1271-.5056.3582-.558 1.0875-.1521 1.5556 1.9775 2.2807 3.1741 5.2567 3.1741 8.5122s-1.1966 6.2315-3.1741 8.5121c-.4059.4682-.3535 1.1975.1521 1.5556zm-4.9168-3.4827c.3498.2477.8254.2365 1.1361-.0587 1.7264-1.6398 2.8027-3.9574 2.8027-6.5263 0-2.569-1.0763-4.8866-2.8027-6.5264-.3107-.2952-.7863-.3064-1.1361-.0587-.5445.3858-.5365 1.2025-.0687 1.6784 1.2416 1.2632 2.0075 2.9955 2.0075 4.9067 0 1.9111-.7659 3.6434-2.0075 4.9066-.4678.4759-.4758 1.2927.0687 1.6784z" fill-rule="evenodd"/><path clip-rule="evenodd" d="m20.022 42.068c-.3942.2792-.9352.2345-1.2554-.1271-2.3437-2.6466-3.7666-6.1274-3.7666-9.9406s1.4229-7.2941 3.7666-9.9407c.3202-.3615.8612-.4063 1.2554-.1271.5056.3582.558 1.0875.1521 1.5556-1.9775 2.2807-3.1741 5.2567-3.1741 8.5122s1.1966 6.2315 3.1741 8.5121c.4059.4682.3535 1.1975-.1521 1.5556zm4.9168-3.4827c-.3498.2477-.8254.2365-1.1361-.0587-1.7264-1.6398-2.8027-3.9574-2.8027-6.5263 0-2.569 1.0763-4.8866 2.8027-6.5264.3107-.2952.7863-.3064 1.1361-.0587.5445.3858.5365 1.2025.0687 1.6784-1.2416 1.2632-2.0075 2.9955-2.0075 4.9067 0 1.9111.7659 3.6434 2.0075 4.9066.4678.4759.4758 1.2927-.0687 1.6784z" fill-rule="evenodd"/></g></svg>

<svg width="64" height="64" viewBox="0 0 64 64" fill="none" xmlns="http://www.w3.org/2000/svg">
<path d="M18 55.0914C22.0822 57.5717 26.8743 59 32 59C46.9117 59 59 46.9117 59 32C59 17.0883 46.9117 5 32 5C17.0883 5 5 17.0883 5 32C5 40.3452 8.78608 47.8062 14.7343 52.7589" stroke="black" stroke-width="2" stroke-linecap="round"/>
<circle cx="32" cy="32" r="3" transform="rotate(90 32 32)" fill="black"/>
<path fill-rule="evenodd" clip-rule="evenodd" d="M43.978 42.068C44.3722 42.3472 44.9132 42.3025 45.2334 41.9409C47.5771 39.2943 49 35.8135 49 32.0003C49 28.1871 47.5771 24.7062 45.2334 22.0596C44.9132 21.6981 44.3722 21.6533 43.978 21.9325V21.9325C43.4724 22.2907 43.42 23.02 43.8259 23.4881C45.8034 25.7688 47 28.7448 47 32.0003C47 35.2558 45.8034 38.2318 43.8259 40.5124C43.42 40.9806 43.4724 41.7099 43.978 42.068V42.068ZM39.0612 38.5853C39.411 38.833 39.8866 38.8218 40.1973 38.5266C41.9237 36.8868 43 34.5692 43 32.0003C43 29.4313 41.9237 27.1137 40.1973 25.4739C39.8866 25.1787 39.411 25.1675 39.0612 25.4152V25.4152C38.5167 25.801 38.5247 26.6177 38.9925 27.0936C40.2341 28.3568 41 30.0891 41 32.0003C41 33.9114 40.2341 35.6437 38.9925 36.9069C38.5247 37.3828 38.5167 38.1996 39.0612 38.5853V38.5853Z" fill="black"/>
<path fill-rule="evenodd" clip-rule="evenodd" d="M20.022 42.068C19.6278 42.3472 19.0868 42.3025 18.7666 41.9409C16.4229 39.2943 15 35.8135 15 32.0003C15 28.1871 16.4229 24.7062 18.7666 22.0596C19.0868 21.6981 19.6278 21.6533 20.022 21.9325V21.9325C20.5276 22.2907 20.58 23.02 20.1741 23.4881C18.1966 25.7688 17 28.7448 17 32.0003C17 35.2558 18.1966 38.2318 20.1741 40.5124C20.58 40.9806 20.5276 41.7099 20.022 42.068V42.068ZM24.9388 38.5853C24.589 38.833 24.1134 38.8218 23.8027 38.5266C22.0763 36.8868 21 34.5692 21 32.0003C21 29.4313 22.0763 27.1137 23.8027 25.4739C24.1134 25.1787 24.589 25.1675 24.9388 25.4152V25.4152C25.4833 25.801 25.4753 26.6177 25.0075 27.0936C23.7659 28.3568 23 30.0891 23 32.0003C23 33.9114 23.7659 35.6437 25.0075 36.9069C25.4753 37.3828 25.4833 38.1996 24.9388 38.5853V38.5853Z" fill="black"/>
</svg>
